X:1
T:The Eastern Townships
M:C
L:1/8
Q:80
C:Michael Grey
S:Slow Air
K:HP
M:6/8 e | \
{g}A3/2{d}B/2{e}A{GAG}A3/2{g}B/2d | \
{gef}e3{ag}a2f |
{a}g3/2f/2{g}de/2{g}B3/2A | \
{g}G3/2{d}B/2{e}A{GdG}B2e | \
{g}A3/2{d}B/2{e}A{GAG}A3/2{g}B/2d |
{gef}e3{ag}a2f | \
{a}g3/2f/2{g}de/2{g}B3/2G | \
{g}A3{GAG}A2 ::
{g}e/2f3/2 | \
{a}g3/2f/2{g}d{gef}e3/2a/2g | \
{a}f3/2d/2{e}B{Gdc}d3/2{g}e/2f |
{a}g3/2f/2{g}de/2{g}B3/2A | \
{g}G3/2{d}B/2{e}A|1 {GdG}B3/2{g}e/2f|2 {GdG}B2e|1
{a}g3/2f/2{g}d{gef}e3/2a/2g |
{a}f3/2d/2{e}B{Gdc}d3/2{g}e/2f | \
{a}g3/2f/2{g}de/2{g}B3/2G | \
{g}A3{GAG}A2 :|
